X: 3164
T: Because He Was A Bonny Lad
R: polka
M: 2/4
K: Gmajor
|:d/c/|BA Gg|e/f/g dB|ce dB|cA Ad/c/|
BA Gg|e/f/g dB|ce dc|BG G:|
|:d/c/|BG dG|eG dG|ce dB|cA Ad/c/|
BG dG|eG dG|ce dc|BG Gd/c/|
BG dG|eG dG|ce dB|cA Ad/c/|
BA Gg|e/f/g dc|BG dG|eG fg||
|:g2 dg|e/f/g dB|ce dB|cA Ag|
g2 dg|e/f/g dB|ce dc|BG Gg:|

